X: 06005
T: BILLY McCOMISKEY'S REEL
C: Bob McQuillen 15 July 82
B: Bob's Note Book 6 #5
%R: reel
Z: 2021 John Chambers <jc:trillian.mit.edu>
M: C
L: 1/8
K: D
A,B, \
| D2A,D B,A,DF | FAED FAfe | d2Ad BdAB | dBAF EDFE |\
| D2A,D B,A,DF | AFED FAfe | d2Ad BdAB | AFEF D2 :|
|: de \
| f2df edBd | AdBd AFDE | FABd efde | f2fd efde |\
| f2df edBd | AdBd AFDE | FABd fdBd | AFEF D2 :|
%%begintext align
%% You never in your life heard anything
%% like it when Billy McComiskey winds up that Paulo Soprani
%% button box of his and takes off - He can get a wailing scream out
%% of that thing that'll blow your socks off!  He and Liz and Mick
%% (our instructors for the Irish Music Week at Augusta) gave
%% us such a wonderful concert - Thanks for all your help and hard
%% work, Billy - It sure was a great week!
%%endtext

%%sep 1 1 500

%%sep 1 1 500

